X: 100
M: 2/4
L: 1/16
K: Am
E2 |\
|: cd |\
e2e2d2^c2 | d4 z2Bc | d2d2c2B2 | c4 z2Bc |\
d2d2c2B2 | c4 B2A2 | B4 ^G4 | A6 :|


